svg/SJJB-OpenStreetMapIcons/transport/train_station.svg

<?xml version="1.0" encoding="UTF-8" standalone="no"?>
<!-- Created with Inkscape (http://www.inkscape.org/) -->
<svg
   xmlns:dc="http://purl.org/dc/elements/1.1/"
   xmlns:cc="http://creativecommons.org/ns#"
   xmlns:rdf="http://www.w3.org/1999/02/22-rdf-syntax-ns#"
   xmlns:svg="http://www.w3.org/2000/svg"
   xmlns="http://www.w3.org/2000/svg"
   xmlns:sodipodi="http://sodipodi.sourceforge.net/DTD/sodipodi-0.dtd"
   xmlns:inkscape="http://www.inkscape.org/namespaces/inkscape"
   version="1.0"
   width="580"
   height="580"
   id="svg2"
   sodipodi:version="0.32"
   inkscape:version="0.46"
   sodipodi:docname="train_station.svg"
   sodipodi:docbase="s:\Data\FacilityIcons"
   inkscape:output_extension="org.inkscape.output.svg.inkscape">
  <metadata
     id="metadata2975">
    <rdf:RDF>
      <cc:Work
         rdf:about="">
        <dc:format>image/svg+xml</dc:format>
        <dc:type
           rdf:resource="http://purl.org/dc/dcmitype/StillImage" />
			  <cc:license
           rdf:resource="http://web.resource.org/cc/PublicDomain" />
        <dc:language>en</dc:language>
      </cc:Work>
    </rdf:RDF>
  </metadata>
  <sodipodi:namedview
     inkscape:window-height="947"
     inkscape:window-width="1048"
     inkscape:pageshadow="2"
     inkscape:pageopacity="0.0"
     guidetolerance="10.0"
     gridtolerance="10.0"
     objecttolerance="10.0"
     borderopacity="1.0"
     bordercolor="#666666"
     pagecolor="#ffffff"
     id="base"
     inkscape:zoom="0.92167712"
     inkscape:cx="245.2434"
     inkscape:cy="281.19503"
     inkscape:window-x="91"
     inkscape:window-y="25"
     inkscape:current-layer="svg2"
     showgrid="false" />
  <defs
     id="defs4">
    <inkscape:perspective
       sodipodi:type="inkscape:persp3d"
       inkscape:vp_x="0 : 290 : 1"
       inkscape:vp_y="0 : 1000 : 0"
       inkscape:vp_z="580 : 290 : 1"
       inkscape:persp3d-origin="290 : 193.33333 : 1"
       id="perspective2441" />
    <inkscape:perspective
       id="perspective3452"
       inkscape:persp3d-origin="30 : 20 : 1"
       inkscape:vp_z="60 : 30 : 1"
       inkscape:vp_y="0 : 1000 : 0"
       inkscape:vp_x="0 : 30 : 1"
       sodipodi:type="inkscape:persp3d" />
    <symbol
       viewBox="244.5 110 489 219.9"
       id="symbol-university">
      <path
         id="path4460"
         d="M79,43l57,119c0,0,21-96,104-96s124,106,124,106l43-133l82-17L0,17L79,43z" />
      <path
         id="path4462"
         d="M94,176l-21,39"
         stroke-width="20"
         stroke="#000000"
         fill="none" />
      <path
         id="path4464"
         d="M300,19c0,10.5-22.6,19-50.5,19S199,29.5,199,19s22.6-19,50.5-19S300,8.5,300,19z" />
      <path
         id="path4466"
         d="M112,216l-16-38L64,88c0,0-9-8-4-35s16-24,16-24"
         stroke-width="20"
         stroke="#000000"
         ill="none" />
    </symbol>
    <inkscape:perspective
       id="perspective4471"
       inkscape:persp3d-origin="372.04724 : 350.78739 : 1"
       inkscape:vp_z="744.09448 : 526.18109 : 1"
       inkscape:vp_y="0 : 1000 : 0"
       inkscape:vp_x="0 : 526.18109 : 1"
       sodipodi:type="inkscape:persp3d" />
    <inkscape:perspective
       id="perspective4668"
       inkscape:persp3d-origin="6 : 4 : 1"
       inkscape:vp_z="12 : 6 : 1"
       inkscape:vp_y="0 : 1000 : 0"
       inkscape:vp_x="0 : 6 : 1"
       sodipodi:type="inkscape:persp3d" />
    <inkscape:perspective
       id="perspective2469"
       inkscape:persp3d-origin="225 : 120 : 1"
       inkscape:vp_z="450 : 180 : 1"
       inkscape:vp_y="0 : 1000 : 0"
       inkscape:vp_x="0 : 180 : 1"
       sodipodi:type="inkscape:persp3d" />
  </defs>
  <g
     id="g1327">
    <path
       d="M 66.275,1.768 C 24.94,1.768 1.704,23.139 1.704,66.804 L 1.704,516.927 C 1.704,557.771 22.599,579.156 63.896,579.156 L 515.92,579.156 C 557.227,579.156 578.149,558.841 578.149,516.927 L 578.149,66.804 C 578.149,24.203 557.227,1.768 514.628,1.768 C 514.624,1.768 66.133,1.625 66.275,1.768 z "
       style="fill:#111;stroke:#eee;stroke-width:3.40799999"
       id="path1329" />
  </g>
  <g
     id="layer3"
     inkscape:label="Layout"
     style="display:none;stroke:#757575;stroke-opacity:1"
     transform="matrix(48.14969,0,0,48.14969,-536.27327,-33.306752)">
    <rect
       style="fill:none;stroke:#757575;stroke-width:0.10000000000000001;stroke-miterlimit:4;stroke-dasharray:none;stroke-opacity:1;display:inline"
       id="rect4134"
       width="10"
       height="10"
       x="1"
       y="1" />
    <rect
       style="fill:none;stroke:#757575;stroke-width:0.10000000000000001;stroke-miterlimit:4;stroke-dasharray:none;stroke-opacity:1;display:inline"
       id="rect4136"
       width="8"
       height="8"
       x="2"
       y="2" />
  </g>
  <g
     id="layer1"
     inkscape:label="Ebene 1"
     transform="matrix(1.3788341,0,0,1.3788341,13.801363,14.257394)"
     style="fill:#ffffff">
    <g
       id="g2285"
       transform="matrix(1.678818,0,0,1.678818,-1258.525,-55.28905)"
       style="fill:#ffffff">
      <path
         style="fill:#ffffff;fill-opacity:1;fill-rule:evenodd;stroke:#ffffff;stroke-width:9.06824765;stroke-linecap:butt;stroke-linejoin:miter;stroke-opacity:1;stroke-miterlimit:4;stroke-dasharray:none"
         d="M 80.5,104.90625 C 70.447375,104.90625 65.489525,113.13213 61.375,121.5625 C 44.594729,161.89772 27.679437,191.39396 21.53125,246.25 C 20.262147,284.88588 18.342155,323.19754 18.84375,362.71875 C 18.843951,386.09026 46.095294,421.96876 68.9375,421.96875 L 504.5,421.96875 L 504.5,378.28125 C 503.62729,378.06844 502.77254,377.83614 501.90625,377.59375 L 501.90625,338.15625 L 504.5,338.65625 L 504.5,326.4375 C 414.3651,297.72544 338.34059,239.36701 296.40625,136.15625 C 289.14772,117.55063 274.86101,106.18525 255.96875,104.90625 L 80.5,104.90625 z M 79.09375,130.84375 L 248.65625,130.84375 C 259.69238,130.84376 269.41114,172.46222 277.375,193.75 C 279.90972,200.66807 277.91923,211.75 272.5625,211.75 L 51.96875,211.75 C 46.89351,211.75009 44.807398,202.68366 46.9375,194.28125 C 57.661056,173.14104 69.904347,130.84375 79.09375,130.84375 z M 315.3125,222.3125 C 327.72007,234.34087 341.0587,250.86193 352.5625,258.40625 L 352.5625,331.6875 L 319,316.3125 C 315.80942,285.37813 315.50293,253.84702 315.3125,222.3125 z M 371.75,275.5 C 385.62552,287.28368 391.31929,289.60711 403.3125,298.375 L 403.8125,354.78125 L 371.75,341.34375 C 371.00629,310.40934 371.94043,307.03452 371.75,275.5 z M 70.90625,296.96875 C 71.249682,296.95139 71.589769,296.96875 71.9375,296.96875 C 83.065078,296.96884 92.09375,305.96635 92.09375,317.09375 C 92.093915,328.22122 83.064875,337.25 71.9375,337.25 C 60.810304,337.25009 51.78125,328.22115 51.78125,317.09375 C 51.781384,306.31415 60.259865,297.50692 70.90625,296.96875 z M 237.28125,296.96875 C 237.62468,296.95139 237.96477,296.96875 238.3125,296.96875 C 249.44013,296.96884 258.46875,305.96635 258.46875,317.09375 C 258.46896,328.22122 249.43987,337.25 238.3125,337.25 C 227.18536,337.25009 218.15625,328.22115 218.15625,317.09375 C 218.15645,306.31415 226.63487,297.50692 237.28125,296.96875 z M 419.875,308.40625 L 451.21875,321.1875 L 451.21875,367.5625 C 439.72455,366.30716 429.0654,363.6601 419.875,358.71875 L 419.875,308.40625 z M 464.1875,327.4375 L 489.09375,333.84375 L 489.09375,375.875 C 480.6013,375.49475 472.22194,374.53484 464.1875,371.40625 L 464.1875,327.4375 z"
         id="path2251"
         sodipodi:nodetypes="ccccccccccccccccccccccccccccccccssssccssssccccccccccc"
         transform="matrix(0.4763882,0,0,0.4763882,745.66673,13.261702)" />
      <path
         style="fill:#ffffff;fill-opacity:1;fill-rule:evenodd;stroke:none;stroke-width:1px;stroke-linecap:butt;stroke-linejoin:miter;stroke-opacity:1"
         d="M 216.125,432.28125 L 216.125,453.0625 L 123.75,453.0625 L 123.75,432.34375 L 60.71875,432.34375 L 60.71875,453.3125 L 18.875,453.3125 L 18.8125,482.8125 L 313.28125,482.8125 C 354.71781,464.14918 427.11102,440.61864 504.5,437.3635 L 504.5,432.28125 L 216.125,432.28125 z"
         transform="matrix(0.4763882,0,0,0.4763882,745.66673,13.261702)"
         id="path2283"
         sodipodi:nodetypes="cccccccccccc" />
    </g>
  </g>
</svg>

<svg xmlns="http://www.w3.org/2000/svg" viewBox="0 0 580 580"><path d="m66.28 1.768c-41.34 0-64.57 21.371-64.57 65.04v450.12c0 40.844 20.895 62.23 62.19 62.23h452.02c41.31 0 62.23-20.315 62.23-62.23v-450.12c0-42.601-20.922-65.04-63.52-65.04-.004 0-448.5-.143-448.35 0z" fill="#111" stroke="#eee" stroke-width="3.408"/><g transform="matrix(1.10275 0 0 1.10275 4.577-31.28)" fill="#fff" fill-rule="evenodd"><path d="m80.5 104.91c-10.05 0-15.01 8.226-19.12 16.656-16.78 40.34-33.696 69.831-39.844 124.69-1.269 38.636-3.189 76.948-2.688 116.47 0 23.372 27.25 59.25 50.09 59.25h435.56v-43.688c-.873-.213-1.727-.445-2.594-.688v-39.438l2.594.5v-12.219c-90.13-28.712-166.16-87.07-208.09-190.28-7.259-18.606-21.545-29.971-40.44-31.25h-175.47zm-1.406 25.938h169.56c11.04 0 20.755 41.618 28.719 62.906 2.535 6.918.544 18-4.813 18h-220.59c-5.075 0-7.161-9.07-5.03-17.469 10.724-21.14 22.967-63.44 32.16-63.44zm236.22 91.47c12.408 12.03 25.746 28.549 37.25 36.09v73.28l-33.563-15.375c-3.191-30.934-3.497-62.47-3.688-94zm56.44 53.19c13.876 11.784 19.569 14.11 31.563 22.875l.5 56.41-32.06-13.438c-.744-30.934.19-34.31 0-65.844zm-300.84 21.469c.343-.017.684 0 1.031 0 11.128 0 20.16 8.998 20.16 20.12 0 11.127-9.03 20.16-20.16 20.16-11.127 0-20.16-9.03-20.16-20.16 0-10.78 8.479-19.587 19.12-20.12zm166.37 0c.343-.017.684 0 1.031 0 11.128 0 20.16 8.998 20.16 20.12 0 11.127-9.03 20.16-20.16 20.16-11.127 0-20.16-9.03-20.16-20.16 0-10.78 8.479-19.587 19.12-20.12zm182.59 11.438l31.344 12.781v46.37c-11.494-1.255-22.15-3.902-31.344-8.844v-50.31zm44.31 19.03l24.906 6.406v42.03c-8.492-.38-16.872-1.34-24.906-4.469v-43.969z" stroke="#fff" stroke-width="9.07"/><path d="m216.12 432.28v20.781h-92.37v-20.719h-63.03v20.969h-41.844l-.063 29.5h294.47c41.44-18.663 113.83-42.19 191.22-45.45v-5.082h-288.37"/></g></svg>
